!!!ONR: No. 42
!! From Harold Courlander, "Haiti Singing"
!! Chapel Hill: University of North Carolina Press, 1939
!! Copyright University of North Carolina Press
!!!ENC: D. Huron
**kern
*clefG2
*k[]
*M2/4
=1-
4r
8cc
8cc
=
8cc
16cc
[16cc
16cc]
16b
8a
=
[2dd
=
8dd]
8g
(8b
8dd)
=
8.b
16b
12b
12a
12g
=
[2cc
=
4cc]
12e
12g
12g
=
4g
8cc
8cc
=
4r
8cc
8cc
=
8cc
16cc
[16cc
16cc]
16b
8a
=
[2dd
=
8dd]
8g
(8b
8dd)
=
8.b
16b
12b
12a
12g
=
[2cc
=
4cc]
12e
12g
12g
=
2cc
==
*-
